findly-builder/apps/searchassist/src/assets/icons/dashboard/publish.svg

<svg width="9" height="13" viewBox="0 0 9 13" fill="none" xmlns="http://www.w3.org/2000/svg">
<path fill-rule="evenodd" clip-rule="evenodd" d="M0.333313 1.16843C0.333313 0.809826 0.696134 0.571732 1.02063 0.702143L1.05936 0.719577L8.68039 4.52761C9.03614 4.70537 9.04982 5.20034 8.72144 5.40249L8.68039 5.42531L1.33684 9.09442V11.8309C1.33684 12.0926 1.13646 12.3076 0.880748 12.3306L0.835077 12.3327C0.573356 12.3327 0.358436 12.1323 0.335364 11.8766L0.333313 11.8309V1.16843ZM1.33684 1.98003V7.97266L7.33324 4.9765L1.33684 1.98003Z" fill="#28A745"/>
</svg>

<svg width="9" height="13" fill="none" xmlns="http://www.w3.org/2000/svg"><path fill-rule="evenodd" clip-rule="evenodd" d="M.333 1.168c0-.358.363-.596.688-.466l.038.018L8.68 4.528a.5.5 0 0 1 .041.874l-.04.023-7.344 3.67v2.736c0 .262-.2.477-.456.5l-.046.002a.502.502 0 0 1-.5-.456l-.002-.046V1.168Zm1.004.812v5.993l5.996-2.997L1.337 1.98Z" fill="#28A745"/></svg>
